docs/images/icon-discord-white.svg

<?xml version="1.0" encoding="UTF-8"?>
<svg width="162px" height="176px" viewBox="0 0 162 176" version="1.1" xmlns="http://www.w3.org/2000/svg" xmlns:xlink="http://www.w3.org/1999/xlink">
    <!-- Generator: Sketch 63.1 (92452) - https://sketch.com -->
    <title>016-discord</title>
    <desc>Created with Sketch.</desc>
    <g id="Page-1" stroke="none" stroke-width="1" fill="none" fill-rule="evenodd">
        <g id="016-discord" fill="#FFFFFF" fill-rule="nonzero">
            <path d="M18.92,155.437333 L123.486,155.437333 L118.492,139.267333 L130.438,149.519333 L141.386667,159.331333 L161.333333,176 L161.333333,18.15 C160.834667,8.338 152.386667,0 141.914667,0 L18.9566667,0.022 C8.492,0.022 -1.95399252e-14,8.37466667 -1.95399252e-14,18.1866667 L-1.95399252e-14,137.28 C-1.95399252e-14,147.627333 8.47733333,155.437333 18.92,155.437333 L18.92,155.437333 Z M40.3113333,50.9813333 C53.7533333,41.1986667 66.2126667,41.668 66.2126667,41.668 L67.2173333,42.658 C50.7686667,46.5813333 43.3106667,53.9293333 43.3106667,53.9293333 C43.3106667,53.9293333 45.3053333,52.954 48.7886667,51.4653333 C70.9426667,42.7533333 95.1353333,43.384 117.531333,54.4133333 C117.531333,54.4133333 110.058667,47.542 94.622,43.142 L95.986,41.8 C98.12,41.8073333 109.413333,42.2033333 121.498667,51.04 C121.498667,51.04 135.021333,74.14 135.021333,102.52 C134.574,101.977333 126.632,114.737333 106.194,115.177333 C106.194,115.177333 102.732667,111.261333 100.268667,107.844 C112.222,104.412 116.695333,97.548 116.695333,97.548 C112.772,100.019333 109.193333,101.486 106.289333,102.952667 C101.823333,104.918 97.35,105.886 92.884,106.876 C71.7346667,110.308 59.862,104.566 48.642,100.012 L44.8066667,98.0613333 C44.8066667,98.0613333 49.2726667,104.925333 60.7493333,108.357333 C57.7353333,111.796667 54.7506667,115.705333 54.7506667,115.705333 C34.32,115.221333 26.8693333,102.461333 26.8693333,102.461333 C26.8693333,74.0373333 40.3113333,50.9813333 40.3113333,50.9813333 L40.3113333,50.9813333 Z" id="Shape"></path>
            <path d="M97.592,93.654 C102.806,93.654 107.052,89.254 107.052,83.8273333 C107.052,78.4373333 102.828,74.0373333 97.592,74.0373333 L97.592,74.0593333 C92.4,74.0593333 88.1466667,78.4446667 88.132,83.8713333 C88.132,89.254 92.378,93.654 97.592,93.654 Z" id="Path"></path>
            <path d="M63.7266667,93.654 C68.9406667,93.654 73.1866667,89.254 73.1866667,83.8273333 C73.1866667,78.4373333 68.97,74.0373333 63.756,74.0373333 L63.7266667,74.0593333 C58.5126667,74.0593333 54.2666667,78.4446667 54.2666667,83.8713333 C54.2666667,89.254 58.5126667,93.654 63.7266667,93.654 L63.7266667,93.654 Z" id="Path"></path>
        </g>
    </g>
</svg>

<svg width="162" height="176" xmlns="http://www.w3.org/2000/svg">
  <defs/>
  <g fill="#FFF" fill-rule="nonzero">
    <path d="M18.92 155.437h104.566l-4.994-16.17 11.946 10.252 10.949 9.812L161.333 176V18.15C160.835 8.338 152.387 0 141.915 0L18.957.022C8.492.022 0 8.375 0 18.187V137.28c0 10.347 8.477 18.157 18.92 18.157zM40.311 50.981c13.442-9.782 25.902-9.313 25.902-9.313l1.004.99C50.77 46.581 43.311 53.929 43.311 53.929s1.994-.975 5.478-2.464c22.154-8.712 46.346-8.081 68.742 2.948 0 0-7.472-6.871-22.909-11.271l1.364-1.342c2.134.007 13.427.403 25.513 9.24 0 0 13.522 23.1 13.522 51.48-.447-.543-8.389 12.217-28.827 12.657 0 0-3.461-3.916-5.925-7.333 11.953-3.432 16.426-10.296 16.426-10.296-3.923 2.471-7.502 3.938-10.406 5.405-4.466 1.965-8.939 2.933-13.405 3.923-21.15 3.432-33.022-2.31-44.242-6.864l-3.835-1.95s4.466 6.863 15.942 10.295c-3.014 3.44-5.998 7.348-5.998 7.348-20.431-.484-27.882-13.244-27.882-13.244 0-28.424 13.442-51.48 13.442-51.48z"/>
    <path d="M97.592 93.654c5.214 0 9.46-4.4 9.46-9.827 0-5.39-4.224-9.79-9.46-9.79v.022c-5.192 0-9.445 4.386-9.46 9.812 0 5.383 4.246 9.783 9.46 9.783zM63.727 93.654c5.214 0 9.46-4.4 9.46-9.827 0-5.39-4.217-9.79-9.431-9.79l-.03.022c-5.213 0-9.46 4.386-9.46 9.812 0 5.383 4.247 9.783 9.46 9.783z"/>
  </g>
</svg>
